Obsidian-SemiLight/actions/16s/format-text-uppercase.svg

<svg viewBox="0 0 16 16" xmlns="http://www.w3.org/2000/svg"><path d="m3.8261719 5.9980469-2.83007815 8.0000001h1.14453125l.9726562-2.285156h2.7246094l.8730469 2.285156h1.1425781l-2.5898437-8.0000001zm4.8847656.0019531v8h4.0000005a2.285714 2.285714 0 0 0 2.285156-2.285156 2.285714 2.285714 0 0 0 -1.533203-2.1542971 2.285714 2.285714 0 0 0 .390625-1.2753907 2.285714 2.285714 0 0 0 -2.28711-2.2851562h-2.285156zm1.1425781 1.1425781h1.7128904a1.142857 1.142857 0 0 1 1.142578 1.1425781 1.142857 1.142857 0 0 1 -1.142578 1.1425782h-1.7128904zm-5.3105468.0957031 1.0722656 3.3320308h-2.2558594zm5.3105468 3.3339848h2.8574224a1.142857 1.142857 0 0 1 1.142578 1.142578 1.142857 1.142857 0 0 1 -1.142578 1.142578h-2.8574224z" fill="#4d4d4d"/><path d="m8.71 5h5l-2.5-3z" fill="#3daee9"/></svg>

<svg xmlns="http://www.w3.org/2000/svg" viewBox="0 0 16 16">
  <defs id="defs3051">
    <style type="text/css" id="current-color-scheme">
      .ColorScheme-Text {
        color:#4d4d4d;
      }
      .ColorScheme-Highlight {
        color:#3daee9;
      }
      </style>
  </defs>
  <path 
        style="fill:currentColor;fill-opacity:1;stroke:none"
        d="M 3.8261719 5.9980469 L 0.99609375 13.998047 L 2.140625 13.998047 L 3.1132812 11.712891 L 5.8378906 11.712891 L 6.7109375 13.998047 L 7.8535156 13.998047 L 5.2636719 5.9980469 L 3.8261719 5.9980469 z M 8.7109375 6 L 8.7109375 14 L 12.710938 14 A 2.285714 2.285714 0 0 0 14.996094 11.714844 A 2.285714 2.285714 0 0 0 13.462891 9.5605469 A 2.285714 2.285714 0 0 0 13.853516 8.2851562 A 2.285714 2.285714 0 0 0 11.566406 6 L 9.28125 6 L 8.7109375 6 z M 9.8535156 7.1425781 L 11.566406 7.1425781 A 1.142857 1.142857 0 0 1 12.708984 8.2851562 A 1.142857 1.142857 0 0 1 11.566406 9.4277344 L 9.8535156 9.4277344 L 9.8535156 7.1425781 z M 4.5429688 7.2382812 L 5.6152344 10.570312 L 3.359375 10.570312 L 4.5429688 7.2382812 z M 9.8535156 10.572266 L 12.710938 10.572266 A 1.142857 1.142857 0 0 1 13.853516 11.714844 A 1.142857 1.142857 0 0 1 12.710938 12.857422 L 9.8535156 12.857422 L 9.8535156 10.572266 z "
        class="ColorScheme-Text"
        />
  <path 
        style="fill:currentColor;fill-opacity:1;stroke:none"
        d="m 8.71,5 5,0 -2.5,-3 z"
        class="ColorScheme-Highlight"
        />
</svg>
